app/dist/common/images/manitex-international.svg

<svg height="18" viewBox="0 0 18 18" width="18" xmlns="http://www.w3.org/2000/svg"><path d="m0 0h18v18h-18z" fill="#f0f3fa"/><path d="m4.19 4s.3.42.39.5h8.91l.42-.5h-9.71zm-.19 5v4.88l.5-.4v-9.02l-.5-.35zm9.5-4.5v8.96l.5.4v-9.63l-.5.29zm-9.33 9.5h9.66l-.39-.5h-8.88zm6.83-9c-1.22 1.14-2.02 2-2.02 2l-1.98-2zm0 3-2 1.87-2-1.87v5h4z" fill="#00477f"/></svg>

<!-- by TradingView --><svg width="18" height="18" viewBox="0 0 18 18" xmlns="http://www.w3.org/2000/svg"><path fill="#F0F3FA" d="M0 0h18v18H0z"/><path d="M4.19 4s.3.42.39.5h8.91l.42-.5H4.2ZM4 9v4.88l.5-.4V4.46L4 4.11V9Zm9.5-4.5v8.96l.5.4V4.23l-.5.29ZM4.17 14h9.66l-.39-.5H4.56l-.39.5ZM11 5C9.78 6.14 8.98 7 8.98 7L7 5h4Zm0 3L9 9.87 7 8v5h4V8Z" fill="#00477F"/></svg>
